src/icons/svg/arrow-right.svg

<svg width="20" height="20" fill="none" xmlns="http://www.w3.org/2000/svg"><path d="M9.75 4.963a.508.508 0 0 0-.299.312.546.546 0 0 0 0 .451c.036.086.598.671 1.825 1.899L13.05 9.4H5.381l-.149.075a.584.584 0 0 0 0 1.05l.149.075h7.669l-1.774 1.775c-1.227 1.228-1.789 1.813-1.825 1.899a.546.546 0 0 0 0 .451c.069.165.14.239.299.312a.56.56 0 0 0 .5-.001c.166-.078 4.763-4.673 4.815-4.813a.754.754 0 0 0 0-.446c-.052-.14-4.649-4.735-4.815-4.813a.56.56 0 0 0-.5-.001" fill-rule="evenodd" fill="#000"/></svg>

<svg width="20" height="20" viewBox="0 0 20 20" fill="none" xmlns="http://www.w3.org/2000/svg"><path d="M9.750 4.963 C 9.591 5.036,9.520 5.110,9.451 5.275 C 9.386 5.431,9.386 5.569,9.451 5.726 C 9.487 5.812,10.049 6.397,11.276 7.625 L 13.050 9.400 9.215 9.400 L 5.381 9.400 5.232 9.475 C 4.795 9.696,4.795 10.304,5.232 10.525 L 5.381 10.600 9.215 10.600 L 13.050 10.600 11.276 12.375 C 10.049 13.603,9.487 14.188,9.451 14.274 C 9.386 14.431,9.386 14.569,9.451 14.725 C 9.520 14.890,9.591 14.964,9.750 15.037 C 9.920 15.115,10.082 15.115,10.250 15.036 C 10.416 14.958,15.013 10.363,15.065 10.223 C 15.110 10.103,15.110 9.897,15.065 9.777 C 15.013 9.637,10.416 5.042,10.250 4.964 C 10.082 4.885,9.920 4.885,9.750 4.963 " stroke="none" fill-rule="evenodd" fill="black"></path></svg>
